X:20
T:Hungarian
C:Reelroad
M:4/4
L:1/8
Q:1/4=180
K:G
|: EBAB GFE2 | EBAB G2FE | EBAB GFE2 | EBAB E2E2 :|
|: GEGE AA F2 | GEGE GFED | GEGE AA F2 | FAGF E2E2 :| 

